flaticon/travel/aqualung.svg

<svg xmlns="http://www.w3.org/2000/svg" width="32" height="32" viewBox="0 0 24 24">
    <path d="M 12 4.398438 C 7.808594 4.398438 4.398438 7.359375 4.398438 11 C 4.398438 14.640625 7.808594 17.601562 12 17.601562 C 16.191406 17.601562 19.601562 14.640625 19.601562 11 C 19.601562 7.359375 16.191406 4.398438 12 4.398438 Z M 12 16.800781 C 8.25 16.800781 5.199219 14.199219 5.199219 11 C 5.199219 7.800781 8.25 5.199219 12 5.199219 C 15.75 5.199219 18.800781 7.800781 18.800781 11 C 18.800781 14.199219 15.75 16.800781 12 16.800781 Z M 12 16.800781"/>
    <path d="M 12 7.199219 C 9.398438 7.199219 7.199219 8.941406 7.199219 11 C 7.199219 13.058594 9.398438 14.800781 12 14.800781 C 14.601562 14.800781 16.800781 13.058594 16.800781 11 C 16.800781 8.941406 14.601562 7.199219 12 7.199219 Z M 15.914062 10.398438 L 14.800781 10.398438 L 14.800781 8.882812 C 15.351562 9.292969 15.75 9.816406 15.914062 10.398438 Z M 11.601562 10.398438 L 10 10.398438 L 10 8.417969 C 10.480469 8.203125 11.023438 8.0625 11.601562 8.015625 Z M 11.601562 11.199219 L 11.601562 13.984375 C 11.023438 13.9375 10.480469 13.796875 10 13.582031 L 10 11.199219 Z M 12.398438 11.199219 L 14 11.199219 L 14 13.582031 C 13.519531 13.796875 12.976562 13.9375 12.398438 13.984375 Z M 12.398438 10.398438 L 12.398438 8.015625 C 12.976562 8.0625 13.519531 8.203125 14 8.417969 L 14 10.398438 Z M 9.199219 8.882812 L 9.199219 10.398438 L 8.085938 10.398438 C 8.25 9.816406 8.648438 9.292969 9.199219 8.882812 Z M 8.015625 11.199219 L 9.199219 11.199219 L 9.199219 13.117188 C 8.523438 12.617188 8.082031 11.941406 8.015625 11.199219 Z M 14.800781 13.117188 L 14.800781 11.199219 L 15.984375 11.199219 C 15.917969 11.941406 15.476562 12.617188 14.800781 13.117188 Z M 14.800781 13.117188"/>
    <path d="M 22.664062 7.199219 L 21.507812 7.199219 C 20.375 4.886719 18.238281 3.0625 15.601562 2.179688 L 15.601562 1.335938 C 15.601562 0.597656 15 0 14.265625 0 L 9.335938 0 C 8.597656 0 8 0.597656 8 1.335938 L 8 2.324219 C 5.546875 3.25 3.570312 5.007812 2.492188 7.199219 L 1.335938 7.199219 C 0.597656 7.199219 0 7.796875 0 8.535156 L 0 13.464844 C 0 14.203125 0.597656 14.800781 1.335938 14.800781 L 2.492188 14.800781 C 3.15625 16.152344 4.15625 17.335938 5.40625 18.261719 L 1.753906 21.6875 L 1.480469 21.980469 L 1.753906 22.273438 C 2.789062 23.371094 4.292969 24 5.878906 24 L 18.121094 24 C 19.707031 24 21.210938 23.371094 22.257812 22.257812 L 22.539062 21.96875 L 18.59375 18.261719 C 19.84375 17.335938 20.847656 16.152344 21.507812 14.800781 L 22.664062 14.800781 C 23.402344 14.800781 24 14.203125 24 13.464844 L 24 8.535156 C 24 7.796875 23.402344 7.199219 22.664062 7.199219 Z M 8.800781 1.335938 C 8.800781 1.039062 9.039062 0.800781 9.335938 0.800781 L 14.265625 0.800781 C 14.558594 0.800781 14.800781 1.039062 14.800781 1.335938 L 14.800781 1.949219 C 14.796875 1.945312 14.792969 1.945312 14.789062 1.945312 C 14.316406 1.828125 13.832031 1.738281 13.335938 1.679688 C 13.316406 1.675781 13.296875 1.675781 13.277344 1.671875 C 12.859375 1.625 12.433594 1.601562 12 1.601562 C 11.941406 1.601562 11.882812 1.601562 11.824219 1.605469 C 11.796875 1.605469 11.769531 1.605469 11.738281 1.605469 C 11.503906 1.609375 11.265625 1.621094 11.035156 1.640625 C 11.03125 1.640625 11.03125 1.640625 11.027344 1.640625 C 10.78125 1.664062 10.535156 1.691406 10.289062 1.730469 C 10.277344 1.730469 10.265625 1.734375 10.25 1.734375 C 10.015625 1.773438 9.78125 1.816406 9.550781 1.867188 C 9.542969 1.867188 9.53125 1.871094 9.523438 1.871094 C 9.277344 1.925781 9.039062 1.988281 8.800781 2.058594 Z M 2.144531 14 L 1.335938 14 C 1.039062 14 0.800781 13.761719 0.800781 13.464844 L 0.800781 8.535156 C 0.800781 8.238281 1.039062 8 1.335938 8 L 2.144531 8 C 2.140625 8.011719 2.136719 8.019531 2.132812 8.03125 C 2.050781 8.257812 1.976562 8.484375 1.910156 8.71875 C 1.90625 8.734375 1.902344 8.75 1.898438 8.769531 C 1.839844 8.980469 1.792969 9.195312 1.75 9.414062 C 1.746094 9.445312 1.738281 9.476562 1.730469 9.507812 C 1.695312 9.726562 1.664062 9.945312 1.640625 10.171875 C 1.636719 10.21875 1.632812 10.265625 1.628906 10.316406 C 1.613281 10.542969 1.601562 10.769531 1.601562 11 C 1.601562 11.230469 1.613281 11.457031 1.628906 11.683594 C 1.636719 11.734375 1.636719 11.78125 1.644531 11.828125 C 1.664062 12.054688 1.695312 12.273438 1.734375 12.492188 C 1.738281 12.523438 1.746094 12.554688 1.75 12.585938 C 1.792969 12.804688 1.84375 13.019531 1.898438 13.230469 C 1.902344 13.25 1.90625 13.265625 1.914062 13.28125 C 1.976562 13.515625 2.050781 13.742188 2.136719 13.96875 C 2.136719 13.980469 2.140625 13.988281 2.144531 14 Z M 17.917969 18.726562 L 21.394531 21.988281 C 20.527344 22.761719 19.355469 23.199219 18.121094 23.199219 L 5.878906 23.199219 C 4.652344 23.199219 3.488281 22.765625 2.609375 21.984375 L 6.082031 18.726562 C 6.09375 18.734375 6.109375 18.742188 6.125 18.753906 C 6.308594 18.863281 6.496094 18.972656 6.6875 19.074219 C 6.742188 19.105469 6.800781 19.136719 6.859375 19.164062 C 7.007812 19.242188 7.160156 19.316406 7.316406 19.390625 C 7.375 19.414062 7.429688 19.441406 7.488281 19.46875 C 7.671875 19.546875 7.859375 19.621094 8.046875 19.691406 C 8.128906 19.722656 8.210938 19.753906 8.296875 19.78125 C 8.441406 19.832031 8.589844 19.878906 8.742188 19.925781 C 8.832031 19.953125 8.925781 19.980469 9.019531 20.003906 C 9.1875 20.050781 9.355469 20.089844 9.527344 20.128906 C 9.609375 20.148438 9.691406 20.164062 9.773438 20.179688 C 9.960938 20.21875 10.15625 20.253906 10.351562 20.28125 C 10.394531 20.285156 10.441406 20.292969 10.488281 20.300781 C 10.691406 20.328125 10.898438 20.347656 11.105469 20.363281 C 11.171875 20.367188 11.234375 20.371094 11.296875 20.375 C 11.53125 20.390625 11.765625 20.398438 12 20.398438 C 12.234375 20.398438 12.46875 20.390625 12.703125 20.375 C 12.765625 20.371094 12.828125 20.367188 12.894531 20.363281 C 13.101562 20.347656 13.308594 20.328125 13.511719 20.300781 C 13.558594 20.292969 13.605469 20.289062 13.652344 20.28125 C 13.84375 20.253906 14.039062 20.21875 14.226562 20.179688 C 14.308594 20.164062 14.390625 20.148438 14.472656 20.128906 C 14.644531 20.089844 14.8125 20.050781 14.980469 20.003906 C 15.074219 19.980469 15.167969 19.953125 15.257812 19.925781 C 15.410156 19.878906 15.558594 19.832031 15.703125 19.78125 C 15.789062 19.753906 15.871094 19.722656 15.953125 19.691406 C 16.144531 19.621094 16.328125 19.546875 16.511719 19.46875 C 16.570312 19.441406 16.625 19.414062 16.683594 19.390625 C 16.839844 19.316406 16.992188 19.242188 17.140625 19.164062 C 17.199219 19.136719 17.257812 19.105469 17.3125 19.074219 C 17.503906 18.972656 17.691406 18.863281 17.875 18.753906 C 17.890625 18.742188 17.90625 18.734375 17.917969 18.726562 Z M 17.773438 17.867188 L 17.742188 17.886719 C 17.550781 18.015625 17.351562 18.136719 17.152344 18.25 C 17.125 18.269531 17.09375 18.285156 17.0625 18.300781 C 16.875 18.40625 16.683594 18.507812 16.488281 18.597656 C 16.441406 18.621094 16.390625 18.644531 16.339844 18.667969 C 16.171875 18.746094 16 18.816406 15.828125 18.886719 C 15.769531 18.90625 15.714844 18.929688 15.65625 18.949219 C 15.488281 19.011719 15.320312 19.070312 15.148438 19.121094 C 15.074219 19.144531 15.003906 19.167969 14.929688 19.1875 C 14.742188 19.242188 14.550781 19.292969 14.359375 19.335938 C 14.292969 19.351562 14.226562 19.363281 14.164062 19.378906 C 13.996094 19.410156 13.824219 19.441406 13.65625 19.46875 C 13.601562 19.476562 13.550781 19.488281 13.496094 19.496094 C 13.285156 19.523438 13.070312 19.546875 12.851562 19.5625 C 12.796875 19.570312 12.742188 19.570312 12.6875 19.574219 C 12.457031 19.589844 12.230469 19.601562 12 19.601562 C 11.769531 19.601562 11.542969 19.589844 11.3125 19.574219 C 11.257812 19.570312 11.203125 19.570312 11.148438 19.5625 C 10.929688 19.546875 10.71875 19.523438 10.503906 19.496094 C 10.449219 19.488281 10.398438 19.476562 10.34375 19.46875 C 10.175781 19.441406 10.003906 19.410156 9.835938 19.378906 C 9.773438 19.363281 9.707031 19.351562 9.644531 19.335938 C 9.449219 19.292969 9.257812 19.242188 9.070312 19.1875 C 8.996094 19.167969 8.925781 19.144531 8.851562 19.125 C 8.679688 19.070312 8.511719 19.011719 8.34375 18.949219 C 8.285156 18.929688 8.230469 18.90625 8.175781 18.886719 C 8 18.816406 7.828125 18.746094 7.660156 18.667969 C 7.609375 18.644531 7.558594 18.621094 7.511719 18.597656 C 7.316406 18.507812 7.125 18.40625 6.9375 18.300781 C 6.90625 18.285156 6.878906 18.269531 6.847656 18.25 C 6.648438 18.136719 6.449219 18.015625 6.257812 17.886719 L 6.226562 17.867188 C 4.898438 16.96875 3.839844 15.769531 3.175781 14.382812 L 3.109375 14.234375 C 2.992188 13.980469 2.890625 13.71875 2.800781 13.457031 C 2.800781 13.453125 2.796875 13.445312 2.796875 13.4375 C 2.710938 13.183594 2.640625 12.925781 2.582031 12.664062 C 2.578125 12.648438 2.578125 12.632812 2.574219 12.617188 C 2.519531 12.359375 2.476562 12.105469 2.445312 11.84375 C 2.445312 11.828125 2.445312 11.8125 2.441406 11.796875 C 2.414062 11.53125 2.398438 11.265625 2.398438 11 C 2.398438 10.734375 2.414062 10.46875 2.441406 10.203125 C 2.445312 10.1875 2.445312 10.171875 2.445312 10.15625 C 2.476562 9.894531 2.519531 9.640625 2.574219 9.386719 C 2.574219 9.367188 2.578125 9.351562 2.582031 9.335938 C 2.640625 9.074219 2.710938 8.816406 2.796875 8.5625 C 2.796875 8.554688 2.800781 8.546875 2.800781 8.542969 C 2.890625 8.28125 2.992188 8.019531 3.109375 7.765625 L 3.175781 7.617188 C 4.179688 5.523438 6.082031 3.859375 8.449219 3.011719 L 8.53125 2.984375 C 9.574219 2.621094 10.675781 2.425781 11.78125 2.40625 C 11.789062 2.40625 11.796875 2.40625 11.800781 2.40625 C 12.910156 2.382812 14.023438 2.535156 15.082031 2.859375 L 15.308594 2.925781 C 17.785156 3.742188 19.789062 5.453125 20.824219 7.617188 L 20.890625 7.765625 C 21.007812 8.019531 21.109375 8.28125 21.199219 8.542969 C 21.199219 8.546875 21.203125 8.554688 21.203125 8.5625 C 21.289062 8.816406 21.359375 9.074219 21.417969 9.335938 C 21.421875 9.351562 21.425781 9.367188 21.425781 9.382812 C 21.480469 9.640625 21.523438 9.894531 21.554688 10.15625 C 21.554688 10.171875 21.554688 10.1875 21.558594 10.203125 C 21.585938 10.46875 21.601562 10.734375 21.601562 11 C 21.601562 11.265625 21.585938 11.53125 21.558594 11.796875 C 21.554688 11.8125 21.554688 11.828125 21.554688 11.84375 C 21.523438 12.105469 21.480469 12.359375 21.425781 12.617188 C 21.425781 12.632812 21.421875 12.648438 21.417969 12.664062 C 21.359375 12.925781 21.289062 13.183594 21.203125 13.4375 C 21.203125 13.445312 21.199219 13.453125 21.199219 13.457031 C 21.109375 13.71875 21.007812 13.980469 20.890625 14.234375 L 20.824219 14.382812 C 20.160156 15.769531 19.101562 16.96875 17.773438 17.867188 Z M 23.199219 13.464844 C 23.199219 13.761719 22.960938 14 22.664062 14 L 21.855469 14 C 21.859375 13.988281 21.863281 13.980469 21.867188 13.96875 C 21.949219 13.742188 22.023438 13.515625 22.089844 13.28125 C 22.09375 13.265625 22.097656 13.25 22.101562 13.230469 C 22.160156 13.019531 22.207031 12.804688 22.25 12.585938 C 22.253906 12.554688 22.261719 12.523438 22.269531 12.492188 C 22.304688 12.273438 22.335938 12.054688 22.359375 11.828125 C 22.363281 11.78125 22.367188 11.734375 22.371094 11.683594 C 22.386719 11.457031 22.398438 11.230469 22.398438 11 C 22.398438 10.769531 22.386719 10.542969 22.371094 10.316406 C 22.363281 10.265625 22.363281 10.21875 22.355469 10.171875 C 22.335938 9.945312 22.304688 9.726562 22.265625 9.507812 C 22.261719 9.476562 22.253906 9.445312 22.25 9.414062 C 22.207031 9.195312 22.15625 8.980469 22.101562 8.769531 C 22.097656 8.75 22.09375 8.734375 22.085938 8.71875 C 22.023438 8.484375 21.949219 8.257812 21.863281 8.03125 C 21.859375 8.019531 21.859375 8.011719 21.855469 8 L 22.664062 8 C 22.960938 8 23.199219 8.238281 23.199219 8.535156 Z M 23.199219 13.464844"/>
    <path d="M12.398438 6C12.398438 6.222656 12.222656 6.398438 12 6.398438 11.777344 6.398438 11.601562 6.222656 11.601562 6 11.601562 5.777344 11.777344 5.601562 12 5.601562 12.222656 5.601562 12.398438 5.777344 12.398438 6zM12.398438 16C12.398438 16.222656 12.222656 16.398438 12 16.398438 11.777344 16.398438 11.601562 16.222656 11.601562 16 11.601562 15.777344 11.777344 15.601562 12 15.601562 12.222656 15.601562 12.398438 15.777344 12.398438 16zM6.398438 11.199219C6.398438 11.421875 6.222656 11.601562 6 11.601562 5.777344 11.601562 5.601562 11.421875 5.601562 11.199219 5.601562 10.980469 5.777344 10.800781 6 10.800781 6.222656 10.800781 6.398438 10.980469 6.398438 11.199219zM18.398438 11.199219C18.398438 11.421875 18.222656 11.601562 18 11.601562 17.777344 11.601562 17.601562 11.421875 17.601562 11.199219 17.601562 10.980469 17.777344 10.800781 18 10.800781 18.222656 10.800781 18.398438 10.980469 18.398438 11.199219zM8.441406 7.238281C8.441406 7.460938 8.261719 7.640625 8.039062 7.640625 7.820312 7.640625 7.640625 7.460938 7.640625 7.238281 7.640625 7.019531 7.820312 6.839844 8.039062 6.839844 8.261719 6.839844 8.441406 7.019531 8.441406 7.238281zM16 14.800781C16 15.019531 15.820312 15.199219 15.601562 15.199219 15.378906 15.199219 15.199219 15.019531 15.199219 14.800781 15.199219 14.578125 15.378906 14.398438 15.601562 14.398438 15.820312 14.398438 16 14.578125 16 14.800781zM8.441406 14.800781C8.441406 15.019531 8.261719 15.199219 8.039062 15.199219 7.820312 15.199219 7.640625 15.019531 7.640625 14.800781 7.640625 14.578125 7.820312 14.398438 8.039062 14.398438 8.261719 14.398438 8.441406 14.578125 8.441406 14.800781zM16 7.238281C16 7.460938 15.820312 7.640625 15.601562 7.640625 15.378906 7.640625 15.199219 7.460938 15.199219 7.238281 15.199219 7.019531 15.378906 6.839844 15.601562 6.839844 15.820312 6.839844 16 7.019531 16 7.238281zM16 7.238281"/>
</svg>

<svg xmlns="http://www.w3.org/2000/svg" width="32" height="32" viewBox="0 0 24 24">
    <path d="M12 4.398C7.809 4.398 4.398 7.36 4.398 11c0 3.64 3.41 6.602 7.602 6.602 4.191 0 7.602-2.961 7.602-6.602 0-3.64-3.41-6.602-7.602-6.602zm0 12.403c-3.75 0-6.8-2.602-6.8-5.801 0-3.2 3.05-5.8 6.8-5.8s6.8 2.6 6.8 5.8c0 3.2-3.05 5.8-6.8 5.8zm0 0"/>
    <path d="M12 7.2C9.398 7.2 7.2 8.94 7.2 11c0 2.059 2.198 3.8 4.8 3.8s4.8-1.741 4.8-3.8c0-2.059-2.198-3.8-4.8-3.8zm3.914 3.198h-1.113V8.883c.55.41.949.933 1.113 1.515zm-4.312 0H10v-1.98a4.9 4.9 0 0 1 1.602-.402zm0 .801v2.785A4.9 4.9 0 0 1 10 13.582v-2.383zm.796 0H14v2.383a4.9 4.9 0 0 1-1.602.402zm0-.8V8.015A4.9 4.9 0 0 1 14 8.418v1.98zM9.2 8.882v1.515H8.086c.164-.582.562-1.105 1.113-1.515zm-1.183 2.316h1.183v1.918c-.676-.5-1.117-1.176-1.183-1.918zm6.785 1.918V11.2h1.183c-.066.742-.507 1.418-1.183 1.918zm0 0"/>
    <path d="M22.664 7.2h-1.156c-1.133-2.313-3.27-4.138-5.906-5.02v-.844C15.602.598 15 0 14.266 0h-4.93C8.598 0 8 .598 8 1.336v.988C5.547 3.25 3.57 5.008 2.492 7.2H1.336C.598 7.2 0 7.797 0 8.535v4.93c0 .738.598 1.336 1.336 1.336h1.156a9.58 9.58 0 0 0 2.914 3.46l-3.652 3.427-.274.292.274.293C2.789 23.371 4.293 24 5.879 24H18.12c1.586 0 3.09-.629 4.137-1.742l.281-.29-3.945-3.706c1.25-.926 2.254-2.11 2.914-3.461h1.156c.738 0 1.336-.598 1.336-1.336v-4.93c0-.738-.598-1.336-1.336-1.336zM8.801 1.335c0-.297.238-.535.535-.535h4.93c.293 0 .535.238.535.535v.613c-.004-.004-.008-.004-.012-.004a11.77 11.77 0 0 0-1.453-.265c-.02-.004-.04-.004-.059-.008-.418-.047-.843-.07-1.277-.07-.059 0-.117 0-.176.003h-.086c-.234.004-.472.016-.703.036h-.008c-.246.023-.492.05-.738.09-.012 0-.023.003-.039.003-.234.04-.469.082-.7.133-.007 0-.019.004-.027.004-.246.055-.484.117-.722.188zM2.145 14h-.81a.533.533 0 0 1-.534-.535v-4.93c0-.297.238-.535.535-.535h.809l-.012.031c-.082.227-.156.453-.223.688l-.012.05a8.59 8.59 0 0 0-.148.645c-.004.031-.012.063-.02.094-.035.219-.066.437-.09.664l-.011.144a9.897 9.897 0 0 0-.027.684c0 .23.011.457.027.684.008.05.008.097.016.144.02.227.05.445.09.664.003.031.011.063.015.094a11.071 11.071 0 0 0 .164.695c.063.235.137.461.223.688 0 .011.004.02.008.031zm15.773 4.727l3.477 3.261c-.868.774-2.04 1.211-3.274 1.211H5.88c-1.227 0-2.39-.433-3.27-1.215l3.473-3.257c.012.007.027.015.043.027a13.111 13.111 0 0 0 1.191.637c.059.023.114.05.172.078a13.85 13.85 0 0 0 .809.312 11.925 11.925 0 0 0 .723.223c.168.047.335.086.507.125.082.02.164.035.246.05.188.04.383.075.579.102a10.645 10.645 0 0 0 .945.094 10.567 10.567 0 0 0 1.406 0l.192-.012c.207-.015.414-.035.617-.062.047-.008.093-.012.14-.02.192-.027.387-.062.575-.101.082-.016.164-.032.246-.051a10.702 10.702 0 0 0 1.23-.348 11.877 11.877 0 0 0 .809-.313c.058-.027.113-.054.172-.077a12.444 12.444 0 0 0 .628-.317c.192-.101.38-.21.563-.32.016-.012.031-.02.043-.027zm-.145-.86l-.03.02c-.192.129-.391.25-.59.363-.028.02-.06.035-.09.05a7.977 7.977 0 0 1-.575.298c-.047.023-.097.047-.148.07-.168.078-.34.148-.512.219-.058.02-.113.043-.172.062a7.759 7.759 0 0 1-.508.172c-.074.024-.144.047-.218.067a9.395 9.395 0 0 1-.57.148c-.067.016-.133.027-.196.043-.168.031-.34.062-.508.09-.054.008-.105.02-.16.027-.21.027-.426.05-.644.067-.055.007-.11.007-.165.011-.23.016-.457.028-.687.028-.23 0-.457-.012-.688-.028-.054-.004-.109-.004-.164-.012-.218-.015-.43-.039-.644-.066-.055-.008-.106-.02-.16-.027-.168-.028-.34-.059-.508-.09-.063-.016-.129-.027-.191-.043a8.817 8.817 0 0 1-.575-.148c-.074-.02-.144-.043-.218-.063-.172-.055-.34-.113-.508-.176-.059-.02-.114-.043-.168-.062-.176-.07-.348-.14-.516-.219l-.148-.07a7.977 7.977 0 0 1-.664-.348 9.196 9.196 0 0 1-.59-.363l-.031-.02c-1.329-.898-2.387-2.097-3.051-3.484l-.067-.149a8.245 8.245 0 0 1-.308-.777c0-.004-.004-.012-.004-.02a7.559 7.559 0 0 1-.215-.773c-.004-.016-.004-.031-.008-.047a8.63 8.63 0 0 1-.129-.773c0-.016 0-.031-.004-.047A7.78 7.78 0 0 1 2.398 11c0-.266.016-.531.043-.797.004-.015.004-.031.004-.047.032-.261.075-.515.13-.77 0-.019.003-.034.007-.05.059-.262.129-.52.215-.774 0-.007.004-.015.004-.019.09-.262.191-.523.308-.777l.067-.149C4.18 5.523 6.082 3.86 8.449 3.012l.082-.028a10.462 10.462 0 0 1 3.25-.578h.02c1.11-.023 2.222.13 3.281.453l.227.067c2.476.816 4.48 2.527 5.515 4.691l.067.149c.117.254.218.515.308.777 0 .004.004.012.004.02a7.559 7.559 0 0 1 .356 1.64c.027.266.043.531.043.797s-.016.531-.043.797c-.004.015-.004.031-.004.047a8.63 8.63 0 0 1-.13.773 7.559 7.559 0 0 1-.223.82c.001.008-.003.016-.003.02-.09.262-.191.523-.308.777l-.067.149c-.664 1.387-1.722 2.586-3.05 3.484zm5.426-4.402a.533.533 0 0 1-.535.535h-.809l.012-.031c.082-.227.156-.453.223-.688l.012-.05a8.59 8.59 0 0 0 .148-.645c.004-.031.012-.063.02-.094.035-.219.066-.437.09-.664l.011-.144c.016-.227.027-.454.027-.684 0-.23-.011-.457-.027-.684-.008-.05-.008-.097-.016-.144a7.34 7.34 0 0 0-.09-.664c-.003-.031-.011-.063-.015-.094a11.071 11.071 0 0 0-.164-.695 7.05 7.05 0 0 0-.223-.688c-.004-.011-.004-.02-.008-.031h.81c.296 0 .534.238.534.535zm0 0"/>
    <path d="M12.398 6a.395.395 0 0 1-.398.398.395.395 0 0 1-.398-.398c0-.223.175-.398.398-.398.223 0 .398.175.398.398zm0 0M12.398 16a.395.395 0 0 1-.398.398.395.395 0 0 1-.398-.398c0-.223.175-.398.398-.398.223 0 .398.175.398.398zm0 0M6.398 11.2a.398.398 0 1 1-.796 0 .398.398 0 1 1 .796 0zm0 0M18.398 11.2a.398.398 0 1 1-.796 0 .398.398 0 1 1 .796 0zm0 0M8.441 7.238a.401.401 0 1 1 0 0zm0 0M16 14.8a.4.4 0 1 1-.8-.003.4.4 0 0 1 .8.004zm0 0M8.441 14.8a.401.401 0 1 1-.801-.004.401.401 0 0 1 .801.005zm0 0M16 7.238a.401.401 0 1 1-.802.003.401.401 0 0 1 .802-.003zm0 0"/>
</svg>
